assets/images/img_location_black_900.svg

<svg width="85" height="90" viewBox="0 0 85 90" fill="none" xmlns="http://www.w3.org/2000/svg">
<path d="M7.68047 10.7037L3.41552 1.71748C2.99648 0.832828 3.76007 -0.163568 4.72853 0.0226738L31.3332 5.14434L29.4522 14.8941L27.5711 24.6439L0.975751 19.5222C0.00729141 19.336 -0.337257 18.1347 0.389088 17.4643L7.68047 10.7037Z" fill="#FFCC08"/>
<path d="M30.6011 1.597L20.8546 52.2096C20.7768 52.6137 21.0412 53.0042 21.4453 53.082L23.8502 53.5452C24.2542 53.623 24.6448 53.3585 24.7226 52.9545L34.469 2.34185C34.5468 1.93784 34.2824 1.54725 33.8784 1.46945L31.4735 1.00634C31.0694 0.928539 30.6789 1.19298 30.6011 1.597Z" fill="#5B574A"/>
<path d="M64.1188 86.3799C64.1188 86.3799 61.0924 87.1994 57.2186 87.0876C53.3447 87.1994 50.3183 86.3799 50.3183 86.3799H50.16C42.5706 83.428 42.6731 73.8924 45.2525 67.4298C47.1336 62.7085 51.6406 58.1176 57.2186 58.1176C62.7965 58.1176 67.3036 62.7085 69.1846 67.4298C71.7641 73.8924 71.8758 83.4187 64.2771 86.3799H64.1188Z" fill="#FFF3C5"/>
<path d="M72.6305 48.9563C73.1613 49.664 76.6441 53.8452 78.2644 56.7599C80.7973 61.3042 81.9426 64.4517 81.4212 66.9101C80.8997 69.3685 77.3238 69.713 76.4951 68.7539C77.2121 71.8362 77.3518 74.4994 77.2959 76.5388C77.2587 77.7587 77.1097 78.9972 76.7558 80.1519C76.2064 81.9398 75.1634 83.4856 73.2358 84.2865C73.2358 84.2865 76.8862 85.3667 76.672 87.8064C76.4578 90.2369 69.9486 90.1903 67.0153 89.7992C64.1379 89.4268 63.663 88.151 64.1193 86.3817H64.2776C71.8669 83.4298 71.7645 73.8942 69.1851 67.4315C67.304 62.7103 62.7969 58.1194 57.219 58.1194C51.641 58.1194 47.134 62.7103 45.2529 67.4315C42.6735 73.8942 42.5617 83.4204 50.1604 86.3817H50.3187C50.7657 88.1603 50.2908 89.4268 47.4133 89.7992C44.48 90.181 37.9709 90.2369 37.7567 87.8064C37.5425 85.3667 41.1928 84.2865 41.1928 84.2865C38.036 82.9735 37.2352 79.649 37.1421 76.5388C37.0769 74.4901 36.8627 68.9494 42.2917 56.3594C39.3397 55.2234 32.4767 52.3459 31.1637 51.7127C28.5936 50.4928 23.9468 47.7178 22.3544 44.4865C21.4791 42.7172 21.7585 40.4264 23.9096 39.5697C26.0607 38.713 30.4653 40.7617 32.0483 41.6649C33.6314 42.5682 37.6635 44.1326 41.3418 45.5574H69.1478C69.1478 45.5574 72.0904 48.2579 72.6212 48.9656L72.6305 48.9563Z" fill="#F8C788"/>
<mask id="mask0_2731_30658" style="mask-type:luminance" maskUnits="userSpaceOnUse" x="21" y="39" width="61" height="51">
<path d="M72.6305 48.9563C73.1613 49.664 76.6441 53.8452 78.2644 56.7599C80.7973 61.3042 81.9426 64.4517 81.4212 66.9101C80.8997 69.3685 77.3238 69.713 76.4951 68.7539C77.2121 71.8362 77.3518 74.4994 77.2959 76.5388C77.2587 77.7587 77.1097 78.9972 76.7558 80.1519C76.2064 81.9398 75.1634 83.4856 73.2358 84.2865C73.2358 84.2865 76.8862 85.3667 76.672 87.8064C76.4578 90.2369 69.9486 90.1903 67.0153 89.7992C64.1379 89.4268 63.663 88.151 64.1193 86.3817H64.2776C71.8669 83.4298 71.7645 73.8942 69.1851 67.4315C67.304 62.7103 62.7969 58.1194 57.219 58.1194C51.641 58.1194 47.134 62.7103 45.2529 67.4315C42.6735 73.8942 42.5617 83.4204 50.1604 86.3817H50.3187C50.7657 88.1603 50.2908 89.4268 47.4133 89.7992C44.48 90.181 37.9709 90.2369 37.7567 87.8064C37.5425 85.3667 41.1928 84.2865 41.1928 84.2865C38.036 82.9735 37.2352 79.649 37.1421 76.5388C37.0769 74.4901 36.8627 68.9494 42.2917 56.3594C39.3397 55.2234 32.4767 52.3459 31.1637 51.7127C28.5936 50.4928 23.9468 47.7178 22.3544 44.4865C21.4791 42.7172 21.7585 40.4264 23.9096 39.5697C26.0607 38.713 30.4653 40.7617 32.0483 41.6649C33.6314 42.5682 37.6635 44.1326 41.3418 45.5574H69.1478C69.1478 45.5574 72.0904 48.2579 72.6212 48.9656L72.6305 48.9563Z" fill="white"/>
</mask>
<g mask="url(#mask0_2731_30658)">
<g style="mix-blend-mode:multiply" opacity="0.5">
<path d="M74.4787 46.3114L58.6388 45.3989L42.7988 44.4863L41.8118 46.5536C44.5588 50.2877 52.949 51.1631 58.2849 51.4704C63.6207 51.7777 72.0575 51.8801 75.2143 48.4905L74.4787 46.3301V46.3114Z" fill="#F8C788"/>
</g>
</g>
<path d="M45.3511 36.3353C43.0789 32.5638 40.0059 30.9808 35.4244 30.4314C35.4244 30.4314 30.4331 32.1355 30.6752 37.9742C30.9639 44.7627 38.4694 46.6996 41.8404 47.4539C42.7251 47.6495 43.6283 47.845 44.5502 48.0313C44.5689 48.022 44.5875 48.0126 44.5968 48.0033H44.6154C45.8726 45.6846 47.6139 40.1067 45.3418 36.3353H45.3511Z" fill="#FC9268"/>
<path d="M84.5998 37.802C84.8792 38.7984 84.9723 39.981 84.7395 41.3686C84.1156 45.0375 81.5268 46.9931 78.7425 48.0733C76.4517 48.9579 74.0305 49.2373 72.4847 49.3863C71.5815 49.4701 70.6596 49.5539 69.719 49.6191C69.7004 49.6098 69.6911 49.6005 69.6725 49.5818H69.6539C68.6947 47.1234 67.6611 41.3686 70.3802 37.9138C73.0993 34.459 76.3493 33.2577 80.9681 33.295C80.9681 33.295 83.7151 34.6359 84.5998 37.8113V37.802Z" fill="#FC9268"/>
<path d="M84.0677 9.9451C84.6078 11.4257 84.6078 13.0367 84.1049 14.4522C83.36 16.566 81.4975 18.2608 78.6387 18.5216C77.8192 16.9292 76.8601 15.4486 75.7333 14.1076C75.9754 13.7072 77.2512 11.7796 80.1845 10.6994C80.1845 10.6994 81.451 10.1965 84.077 9.9451H84.0677Z" fill="#FFF3C5"/>
<path d="M82.1188 7.09865C83.0406 7.91812 83.6925 8.89589 84.065 9.94816C81.439 10.1996 80.1725 10.7024 80.1725 10.7024C77.2392 11.7826 75.9634 13.7102 75.7213 14.1107C74.5201 12.6859 73.1326 11.4195 71.5216 10.3486C71.9965 6.64236 77.9097 3.39243 82.1094 7.10796L82.1188 7.09865Z" fill="#F8C788"/>
<path d="M39.0029 8.13753C41.778 9.5716 42.8023 11.6389 42.9885 12.0766C41.7035 13.2685 40.5581 14.6188 39.5524 16.0994C34.8684 15.0751 33.4436 10.4097 35.2315 6.91765C37.8017 7.48569 38.9936 8.14685 38.9936 8.14685L39.0029 8.13753Z" fill="#FFF3C5"/>
<path d="M47.6322 8.86161C45.9001 9.71833 44.3636 10.8078 42.9947 12.0743C42.8085 11.6459 41.7842 9.57864 39.0092 8.13527C39.0092 8.13527 37.8172 7.47411 35.2471 6.90607C35.7499 5.91898 36.5135 5.02502 37.5378 4.32661C42.166 1.16981 47.6322 5.11814 47.6415 8.86161H47.6322Z" fill="#F8C788"/>
<path d="M79.0082 19.2783C78.8872 19.0269 78.7661 18.7755 78.6358 18.5333C77.8163 16.941 76.8571 15.4603 75.7304 14.1194C74.5291 12.6946 73.1416 11.4282 71.5306 10.3573C68.6718 8.46694 65.1146 7.20981 60.6913 6.80008C57.0223 8.98842 55.0389 11.4003 54.0425 14.8644C53.5862 16.4567 53.7445 17.9001 54.4988 18.9338C55.2996 20.0419 56.7988 20.6565 58.8382 20.7217C61.2128 20.7869 62.7586 19.2876 63.159 17.8536C63.4756 16.7268 63.1218 15.749 62.2185 15.2182C62.0788 15.898 61.8274 16.5778 61.4456 17.2296C60.8124 18.3471 59.7601 19.0269 58.7823 19.0269C58.624 19.0269 58.4657 19.0083 58.3074 18.971C57.46 18.7661 56.9199 18.0398 56.8733 17.0248C56.8175 15.8794 57.3762 14.7247 58.326 14.0077C59.0617 13.4582 59.9463 13.2254 60.8869 13.3279C60.7844 12.8623 60.5982 12.4339 60.3095 12.0707C60.0674 11.7727 60.114 11.3444 60.4119 11.1023C60.7099 10.8602 61.1383 10.9067 61.3804 11.2047C61.9484 11.9124 62.2651 12.7785 62.3209 13.7283C62.4979 13.8028 62.6655 13.8866 62.8424 13.989C64.3417 14.8364 64.9749 16.4567 64.4813 18.226C63.9505 20.1164 62.0229 22.1092 59.0151 22.1092C58.9406 22.1092 58.8661 22.1092 58.7916 22.1092C55.6628 22.0068 54.1263 20.7682 53.3906 19.7532C52.3849 18.375 52.1521 16.5126 52.7295 14.5012C53.6607 11.2699 55.4393 8.80218 58.4005 6.68833C54.1635 6.60452 50.6156 7.40536 47.645 8.87668C45.913 9.73339 44.3765 10.8229 43.0076 12.08C41.7225 13.272 40.5771 14.6223 39.5714 16.1029C39.4131 16.3357 39.2641 16.5685 39.1151 16.8013C34.9526 23.3011 35.4369 30.4528 35.4369 30.4528C40.0184 30.9929 43.1007 32.5853 45.3636 36.3567C47.6357 40.1281 45.885 45.7061 44.6372 48.0248H44.6186C44.6186 48.0248 44.5814 48.0434 44.572 48.0527C48.3434 48.8163 52.4687 49.4402 57.0968 49.7289C61.725 50.0176 65.8968 49.9058 69.7334 49.6172C69.7147 49.6079 69.7054 49.5985 69.6868 49.5799H69.6682C68.709 47.1215 67.6754 41.3666 70.3945 37.9118C73.1137 34.457 76.3636 33.2558 80.9824 33.293C80.9824 33.293 81.1966 32.2128 81.2525 30.4715C81.3363 27.7803 81.0569 23.5246 79.0362 19.2876L79.0082 19.2783ZM48.1572 32.3339C46.9839 32.2594 46.0899 31.2537 46.1644 30.0804C46.2389 28.907 47.2446 28.0131 48.4179 28.0876C49.5913 28.1621 50.4852 29.1678 50.4107 30.3411C50.3362 31.5144 49.3212 32.4084 48.1572 32.3339ZM58.0467 34.0566C57.041 33.9914 56.3426 33.6841 56.4729 33.0882C56.594 32.5201 57.3576 32.2594 58.1584 32.3246C58.9499 32.3525 59.6856 32.7064 59.7322 33.2837C59.788 33.889 59.0524 34.1032 58.0467 34.0473V34.0566ZM68.0758 33.5817C66.9025 33.5072 66.0085 32.5015 66.083 31.3282C66.1575 30.1549 67.1632 29.2609 68.3366 29.3354C69.5099 29.4099 70.4038 30.4156 70.3293 31.5889C70.2548 32.7622 69.2491 33.6562 68.0758 33.5817Z" fill="#F8C788"/>
<path d="M59.1648 15.0936C58.5781 15.5312 58.2243 16.2576 58.2615 16.9467C58.2801 17.3378 58.4105 17.5706 58.6433 17.6264C59.0717 17.7382 59.798 17.3471 60.2636 16.5369C60.5988 15.9503 60.8316 15.317 60.9248 14.7118C60.7665 14.6838 60.6175 14.6745 60.4778 14.6745C59.8911 14.6745 59.4534 14.8887 59.1648 15.1029V15.0936Z" fill="#F8C788"/>
<path d="M52.726 14.481C52.1486 16.4924 52.3814 18.3548 53.3871 19.733C54.1228 20.7481 55.6686 21.9866 58.7882 22.089C58.8627 22.089 58.9372 22.089 59.0117 22.089C62.0195 22.089 63.9564 20.0962 64.4779 18.2058C64.9714 16.4365 64.3475 14.8162 62.8389 13.9688C62.662 13.8664 62.4944 13.7826 62.3175 13.7081C62.2523 12.7583 61.945 11.8922 61.3769 11.1845C61.1348 10.8865 60.7065 10.84 60.4085 11.0821C60.1105 11.3242 60.0639 11.7525 60.306 12.0505C60.604 12.4137 60.7903 12.8421 60.8834 13.3077C59.9429 13.2052 59.0582 13.438 58.3226 13.9875C57.3727 14.7045 56.814 15.8592 56.8699 17.0046C56.9164 18.0196 57.4565 18.7459 58.3039 18.9508C58.4622 18.9881 58.6112 19.0067 58.7789 19.0067C59.7659 19.0067 60.8089 18.3176 61.4421 17.2094C61.8146 16.5576 62.066 15.8778 62.215 15.198C63.1183 15.7288 63.4628 16.7159 63.1555 17.8334C62.7551 19.2674 61.2093 20.776 58.8347 20.7015C56.8047 20.6363 55.2961 20.0124 54.4953 18.9136C53.7503 17.8892 53.5827 16.4459 54.039 14.8442C55.0354 11.3801 57.0282 8.96823 60.6878 6.77988C60.5668 6.77057 60.455 6.75194 60.334 6.74263C60.1384 6.72401 59.9522 6.7147 59.7566 6.70538C59.291 6.67745 58.8347 6.66814 58.3784 6.65882C55.4265 8.77267 53.6386 11.2404 52.7074 14.4717L52.726 14.481ZM60.2595 16.539C59.7939 17.3491 59.0675 17.7402 58.6392 17.6285C58.4064 17.5726 58.276 17.3398 58.2574 16.9487C58.2294 16.2596 58.5833 15.5333 59.1606 15.0956C59.4493 14.8814 59.887 14.6672 60.4737 14.6672C60.6133 14.6672 60.7623 14.6766 60.9206 14.7045C60.8182 15.3098 60.5947 15.943 60.2595 16.5297V16.539Z" fill="#705842"/>
<path d="M48.4382 28.0985C49.6115 28.173 50.5055 29.1787 50.431 30.352C50.3565 31.5253 49.3415 32.4193 48.1775 32.3448C47.0135 32.2703 46.1102 31.2646 46.1847 30.0912C46.2592 28.9179 47.2649 28.024 48.4382 28.0985Z" fill="#705842"/>
<path d="M68.3598 29.3534C69.5332 29.4279 70.4271 30.4336 70.3526 31.6069C70.2781 32.7802 69.2724 33.6742 68.0991 33.5997C66.9258 33.5252 66.0318 32.5195 66.1063 31.3461C66.1808 30.1728 67.1865 29.2789 68.3598 29.3534Z" fill="#705842"/>
<path d="M58.0757 34.0713C57.07 34.0061 56.3715 33.6988 56.5019 33.1028C56.623 32.5348 57.3866 32.274 58.1874 32.3392C58.9789 32.3671 59.7146 32.721 59.7612 33.2984C59.817 33.9036 59.0814 34.1178 58.0757 34.062V34.0713Z" fill="#705842"/>
<path d="M55.5137 35.3798C57.1713 35.6498 58.028 34.7373 58.028 34.7373C58.028 34.7373 58.8847 35.9292 60.4864 35.6498" stroke="#705842" stroke-width="1.37281" stroke-linecap="round" stroke-linejoin="round"/>
<path d="M58.0872 33.9451L58.0779 34.0755L58.0314 34.7366" stroke="#705842" stroke-width="1.37281" stroke-linecap="round" stroke-linejoin="round"/>
</svg>

<svg xmlns="http://www.w3.org/2000/svg" width="85" height="90" fill="none" viewBox="0 0 85 90"><path fill="#FFCC08" d="M7.68 10.704 3.416 1.717C2.996.833 3.76-.163 4.729.023l26.604 5.121-1.88 9.75-1.882 9.75L.976 19.522a1.196 1.196 0 0 1-.587-2.058l7.291-6.76Z"/><path fill="#5B574A" d="M30.601 1.597 20.855 52.21a.745.745 0 0 0 .59.872l2.405.463a.745.745 0 0 0 .873-.59l9.746-50.613a.745.745 0 0 0-.59-.873l-2.405-.463a.745.745 0 0 0-.873.591Z"/><path fill="#FFF3C5" d="M64.119 86.38s-3.027.82-6.9.708c-3.874.111-6.9-.708-6.9-.708h-.159c-7.59-2.952-7.487-12.488-4.907-18.95 1.88-4.722 6.388-9.312 11.966-9.312 5.578 0 10.085 4.59 11.966 9.312 2.58 6.462 2.69 15.989-4.908 18.95h-.158Z"/><path fill="#F8C788" d="M72.63 48.956c.531.708 4.014 4.89 5.634 7.804 2.533 4.544 3.679 7.692 3.157 10.15-.521 2.459-4.097 2.803-4.926 1.844.717 3.082.857 5.745.8 7.785-.036 1.22-.185 2.458-.54 3.613-.549 1.788-1.592 3.334-3.52 4.135 0 0 3.651 1.08 3.437 3.52-.214 2.43-6.723 2.383-9.657 1.992-2.877-.372-3.352-1.648-2.896-3.417h.159c7.589-2.952 7.486-12.488 4.907-18.95-1.881-4.722-6.388-9.313-11.966-9.313-5.578 0-10.085 4.591-11.966 9.313-2.58 6.462-2.691 15.988 4.907 18.95h.159c.447 1.778-.028 3.045-2.906 3.417-2.933.382-9.442.438-9.656-1.993-.215-2.44 3.436-3.52 3.436-3.52-3.157-1.313-3.958-4.637-4.05-7.747-.066-2.049-.28-7.59 5.149-20.18-2.952-1.136-9.815-4.013-11.128-4.646-2.57-1.22-7.217-3.995-8.81-7.227-.875-1.769-.595-4.06 1.556-4.916 2.15-.857 6.555 1.192 8.138 2.095 1.583.903 5.615 2.468 9.294 3.892h27.806s2.942 2.7 3.473 3.409l.01-.01Z"/><mask id="a" width="61" height="51" x="21" y="39" maskUnits="userSpaceOnUse" style="mask-type:luminance"><path fill="#fff" d="M72.63 48.956c.531.708 4.014 4.89 5.634 7.804 2.533 4.544 3.679 7.692 3.157 10.15-.521 2.459-4.097 2.803-4.926 1.844.717 3.082.857 5.745.8 7.785-.036 1.22-.185 2.458-.54 3.613-.549 1.788-1.592 3.334-3.52 4.135 0 0 3.651 1.08 3.437 3.52-.214 2.43-6.723 2.383-9.657 1.992-2.877-.372-3.352-1.648-2.896-3.417h.159c7.589-2.952 7.486-12.488 4.907-18.95-1.881-4.722-6.388-9.313-11.966-9.313-5.578 0-10.085 4.591-11.966 9.313-2.58 6.462-2.691 15.988 4.907 18.95h.159c.447 1.778-.028 3.045-2.906 3.417-2.933.382-9.442.438-9.656-1.993-.215-2.44 3.436-3.52 3.436-3.52-3.157-1.313-3.958-4.637-4.05-7.747-.066-2.049-.28-7.59 5.149-20.18-2.952-1.136-9.815-4.013-11.128-4.646-2.57-1.22-7.217-3.995-8.81-7.227-.875-1.769-.595-4.06 1.556-4.916 2.15-.857 6.555 1.192 8.138 2.095 1.583.903 5.615 2.468 9.294 3.892h27.806s2.942 2.7 3.473 3.409l.01-.01Z"/></mask><g mask="url(#a)"><path fill="#F8C788" d="m74.479 46.311-15.84-.912-15.84-.913-.987 2.068c2.747 3.734 11.137 4.61 16.473 4.916 5.336.308 13.773.41 16.93-2.98l-.736-2.16v-.019Z" opacity=".5" style="mix-blend-mode:multiply"/></g><path fill="#FC9268" d="M45.351 36.335c-2.272-3.771-5.345-5.354-9.927-5.904 0 0-4.99 1.704-4.749 7.543.289 6.789 7.794 8.726 11.165 9.48.885.196 1.788.391 2.71.577a.202.202 0 0 0 .047-.028h.018c1.258-2.318 2.999-7.896.727-11.668h.01ZM84.6 37.802c.28.996.372 2.179.14 3.567-.624 3.669-3.213 5.624-5.997 6.704-2.291.885-4.712 1.164-6.258 1.313-.903.084-1.825.168-2.766.233a.162.162 0 0 1-.046-.037h-.02c-.958-2.459-1.992-8.213.727-11.668 2.72-3.455 5.97-4.656 10.588-4.619 0 0 2.747 1.34 3.632 4.516v-.009Z"/><path fill="#FFF3C5" d="M84.068 9.945a6.69 6.69 0 0 1 .037 4.507c-.745 2.114-2.608 3.809-5.466 4.07-.82-1.593-1.779-3.073-2.906-4.414.242-.4 1.518-2.328 4.451-3.409 0 0 1.267-.502 3.893-.754h-.01Z"/><path fill="#F8C788" d="M82.119 7.099c.922.82 1.573 1.797 1.946 2.85-2.626.25-3.892.753-3.892.753-2.934 1.08-4.21 3.008-4.452 3.409a19.831 19.831 0 0 0-4.2-3.762c.475-3.707 6.389-6.957 10.588-3.241l.01-.01Z"/><path fill="#FFF3C5" d="M39.003 8.138c2.775 1.434 3.8 3.5 3.986 3.939a23.406 23.406 0 0 0-3.437 4.022c-4.684-1.024-6.108-5.69-4.32-9.181 2.57.568 3.762 1.229 3.762 1.229l.009-.01Z"/><path fill="#F8C788" d="M47.632 8.862a19.614 19.614 0 0 0-4.637 3.212c-.186-.428-1.21-2.495-3.986-3.939 0 0-1.192-.66-3.762-1.229a6.924 6.924 0 0 1 2.29-2.58c4.629-3.156 10.095.792 10.105 4.536h-.01Z"/><path fill="#F8C788" d="M79.008 19.278a18.602 18.602 0 0 0-.372-.745c-.82-1.592-1.779-3.073-2.906-4.414a19.834 19.834 0 0 0-4.2-3.762C68.673 8.467 65.116 7.21 60.692 6.8c-3.669 2.188-5.652 4.6-6.649 8.064-.456 1.593-.297 3.036.457 4.07.8 1.108 2.3 1.723 4.34 1.788 2.374.065 3.92-1.434 4.32-2.868.317-1.127-.037-2.105-.94-2.636a6.63 6.63 0 0 1-.773 2.012c-.634 1.117-1.686 1.797-2.664 1.797-.158 0-.316-.019-.475-.056-.847-.205-1.387-.931-1.434-1.946-.055-1.146.503-2.3 1.453-3.017.736-.55 1.62-.783 2.56-.68a3.05 3.05 0 0 0-.577-1.257.684.684 0 0 1 .103-.969.684.684 0 0 1 .968.103c.568.707.885 1.573.94 2.523.178.075.346.159.522.261 1.5.847 2.133 2.468 1.64 4.237-.532 1.89-2.46 3.883-5.467 3.883h-.223c-3.13-.102-4.666-1.34-5.401-2.356-1.006-1.378-1.239-3.24-.661-5.252.93-3.231 2.71-5.699 5.67-7.813-4.236-.083-7.784.717-10.755 2.189a19.861 19.861 0 0 0-4.637 3.203 23.407 23.407 0 0 0-3.437 4.023c-.158.233-.307.465-.456.698-4.162 6.5-3.678 13.652-3.678 13.652 4.581.54 7.664 2.132 9.927 5.904 2.272 3.771.521 9.35-.727 11.668h-.018s-.038.018-.047.028c3.771.763 7.897 1.387 12.525 1.676 4.628.289 8.8.177 12.636-.112a.166.166 0 0 1-.046-.037h-.019c-.959-2.459-1.993-8.213.726-11.668 2.72-3.455 5.97-4.656 10.588-4.619 0 0 .215-1.08.27-2.822.084-2.69-.195-6.946-2.216-11.183l-.028-.01Zm-30.85 13.056a2.126 2.126 0 1 1 .26-4.246 2.126 2.126 0 1 1-.26 4.246Zm9.889 1.723c-1.006-.066-1.704-.373-1.574-.969.121-.568.885-.829 1.685-.763.792.027 1.528.381 1.574.959.056.605-.68.82-1.685.763v.01Zm10.029-.475a2.126 2.126 0 1 1 .26-4.246 2.126 2.126 0 1 1-.26 4.246Z"/><path fill="#F8C788" d="M59.165 15.094c-.587.437-.94 1.164-.904 1.853.02.39.15.624.382.68.429.111 1.155-.28 1.62-1.09.336-.587.569-1.22.662-1.825a2.546 2.546 0 0 0-.447-.037c-.587 0-1.025.214-1.313.428v-.01Z"/><path fill="#705842" d="M52.726 14.481c-.577 2.011-.345 3.874.661 5.252.736 1.015 2.282 2.254 5.401 2.356h.224c3.008 0 4.944-1.993 5.466-3.883.493-1.77-.13-3.39-1.64-4.237a4.543 4.543 0 0 0-.52-.26c-.066-.95-.373-1.817-.941-2.524a.684.684 0 0 0-.969-.103.684.684 0 0 0-.102.968c.298.364.484.792.577 1.258-.94-.103-1.825.13-2.56.68-.95.716-1.509 1.871-1.453 3.017.046 1.015.587 1.74 1.434 1.946.158.037.307.056.475.056.987 0 2.03-.69 2.663-1.798a7.116 7.116 0 0 0 .773-2.011c.903.53 1.248 1.518.94 2.635-.4 1.434-1.946 2.943-4.32 2.869-2.03-.066-3.539-.69-4.34-1.788-.745-1.025-.912-2.468-.456-4.07.996-3.464 2.99-5.876 6.649-8.064-.121-.01-.233-.028-.354-.037a12.026 12.026 0 0 0-.577-.038 33.957 33.957 0 0 0-1.379-.046c-2.952 2.114-4.74 4.581-5.67 7.813l.018.009Zm7.534 2.058c-.466.81-1.192 1.201-1.62 1.09-.234-.056-.364-.29-.383-.68-.028-.69.326-1.416.904-1.853a2.175 2.175 0 0 1 1.313-.429c.14 0 .288.01.447.037a5.617 5.617 0 0 1-.661 1.826v.009Zm-11.822 11.56a2.126 2.126 0 1 1-.26 4.246 2.126 2.126 0 1 1 .26-4.246Zm19.922 1.254a2.126 2.126 0 1 1-.26 4.246 2.126 2.126 0 1 1 .26-4.246Zm-10.284 4.718c-1.006-.065-1.705-.372-1.574-.968.121-.568.885-.829 1.685-.764.792.028 1.528.382 1.574.96.056.605-.68.819-1.685.763v.01Z"/><path stroke="#705842" stroke-linecap="round" stroke-linejoin="round" stroke-width="1.373" d="M55.514 35.38c1.657.27 2.514-.643 2.514-.643s.857 1.192 2.458.913m-2.399-1.705-.01.13-.046.662"/></svg>
